projects/car-system/carkitt_assets/up_arrow.svg

<?xml version="1.0" encoding="UTF-8"?>
<!DOCTYPE svg  PUBLIC '-//W3C//DTD SVG 1.1//EN'  'http://www.w3.org/Graphics/SVG/1.1/DTD/svg11.dtd'>
<svg width="377.34px" height="377.34px" enable-background="new 0 0 377.343 377.343" version="1.1" viewBox="0 0 377.343 377.343" xml:space="preserve" xmlns="http://www.w3.org/2000/svg">
	<path d="m301.69 53.505h-226.04c-10.876 0-19.725 8.843-19.725 19.713v230.9c0 10.878 8.843 19.727 19.725 19.727h226.04c10.873 0 19.722-8.843 19.722-19.727v-230.9c-6e-3 -10.87-8.85-19.713-19.723-19.713zm-102.52 94.904c-0.82 1.102-2.289 1.513-3.573 1.009l-38.281-15.124v88.612c0 1.686-1.365 3.076-3.064 3.065h-30.679c-1.691 0-3.059-1.38-3.07-3.075l0.011-88.598-38.282 15.114c-1.282 0.503-2.739 0.087-3.572-1.01-0.838-1.103-0.838-2.615 0.01-3.721l57.804-75.185c0.583-0.755 1.492-1.193 2.438-1.193 0.952-0.01 1.856 0.438 2.433 1.193l57.804 75.191c0.432 0.561 0.643 1.229 0.637 1.871-3e-3 0.652-0.203 1.296-0.616 1.851zm139.51-148.41h-300.02c-19.568 0-35.436 15.869-35.436 35.434v306.46c0 19.581 15.869 35.447 35.437 35.447h300.02c19.568 0 35.436-15.866 35.436-35.447v-306.46c-2e-3 -19.565-15.869-35.434-35.442-35.434zm-3.296 304.12c0 18.572-15.113 33.691-33.691 33.691h-226.04c-18.576 0-33.695-15.114-33.695-33.691v-230.9c0-18.569 15.114-33.688 33.695-33.688h226.04c18.572 0 33.691 15.114 33.691 33.688v230.9z"/>
</svg>

<?xml version="1.0" encoding="iso-8859-1"?>
<!-- Generator: Adobe Illustrator 16.0.0, SVG Export Plug-In . SVG Version: 6.00 Build 0)  -->
<!DOCTYPE svg PUBLIC "-//W3C//DTD SVG 1.1//EN" "http://www.w3.org/Graphics/SVG/1.1/DTD/svg11.dtd">
<svg version="1.1" id="Capa_1" xmlns="http://www.w3.org/2000/svg" xmlns:xlink="http://www.w3.org/1999/xlink" x="0px" y="0px"
	 width="377.343px" height="377.343px" viewBox="0 0 377.343 377.343" style="enable-background:new 0 0 377.343 377.343;"
	 xml:space="preserve">
<g>
	<path d="M301.689,53.505H75.651c-10.876,0-19.725,8.843-19.725,19.713v230.904c0,10.878,8.843,19.727,19.725,19.727h226.039
		c10.873,0,19.722-8.843,19.722-19.727V73.218C321.406,62.348,312.562,53.505,301.689,53.505z M199.166,148.409
		c-0.82,1.102-2.289,1.513-3.573,1.009l-38.281-15.124v88.612c0,1.686-1.365,3.076-3.064,3.065h-30.679
		c-1.691,0-3.059-1.38-3.07-3.075l0.011-88.598l-38.282,15.114c-1.282,0.503-2.739,0.087-3.572-1.01
		c-0.838-1.103-0.838-2.615,0.01-3.721l57.804-75.185c0.583-0.755,1.492-1.193,2.438-1.193c0.952-0.01,1.856,0.438,2.433,1.193
		l57.804,75.191c0.432,0.561,0.643,1.229,0.637,1.871C199.779,147.21,199.579,147.854,199.166,148.409z M338.677,0H38.662
		C19.094,0,3.226,15.869,3.226,35.434v306.462c0,19.581,15.869,35.447,35.437,35.447h300.02c19.568,0,35.436-15.866,35.436-35.447
		V35.434C374.117,15.869,358.25,0,338.677,0z M335.381,304.122c0,18.572-15.113,33.691-33.691,33.691H75.651
		c-18.576,0-33.695-15.114-33.695-33.691V73.218c0-18.569,15.114-33.688,33.695-33.688h226.039
		c18.572,0,33.691,15.114,33.691,33.688V304.122z"/>
</g>
<g>
</g>
<g>
</g>
<g>
</g>
<g>
</g>
<g>
</g>
<g>
</g>
<g>
</g>
<g>
</g>
<g>
</g>
<g>
</g>
<g>
</g>
<g>
</g>
<g>
</g>
<g>
</g>
<g>
</g>
</svg>
